X:120
T: Galbally
S: "First Collection of Traditional Irish Music" (M.Mulvihill)
Z: B.Black
L: 1/8
M: 6/8
R: jig
K: D
B|AFA dcB|BAG FED|F/G/AD FED|CDE EFG|
AFA dcB|BAG FED|f/g/af gec|ded d2 :|
B|AFA dfa|agf efg|f/g/ag fed|cde e2 A|
AFA dfa|agf efg|f/g/af gec|ded d2 :|
